X: 04048
T: KENTISH HORNPIPE
C: Bob McQuillen 15 Aug'79
B: Bob's Note Book 04 #48
R: hornpipe, reel
Z: 2020 John Chambers <jc:trillian.mit.edu>
M: C
L: 1/8
K: D
|:ABAF D2de | f2df edB2 | ABAF D2d2 | cdef e4 |
| ABAF DFA2 | f2df efdB | AFAB defd | e2dc d4 :|
|:fefg a2f2 | gfed e4   | fefa fed2 | edce A4 |
| BABc d2B2 | ABAF DFA2 | dfdf e2ag | f2d2 d4 :|
%%begintext align
%% Well, if this tune is written
%% for Kent Nielsen, it just _has_ to
%% be a Kentish Hornpipe, don't
%% you agree? Answer: It
%% is, it does, and you do.
%%endtext

%%sep 1 1 500

%%sep 1 1 500

